X:1
T:Title
%%score { ( 1 4 ) | ( 2 3 5 ) }
L:1/8
M:6/8
K:Ab
V:1 treble nm="Grand Piano"
V:4 treble 
V:2 bass 
V:3 bass 
V:5 bass 
V:1
 z6[Q:1/4=100] | .[A,CE]3 .[G,DE]3 | A6 | A>AA A>GA | [EAc]3- [EAc]2 e | e>dc B2 =A/B/ | %6
 d>cB A2 A/G/ | .[A,=DF]3 [A,F]>GA |[M:5/8] z z2 e2 |[M:3/4] z c- c4- | c[F_c]- [Fc]3 z | Bc- c4- | %12
 c-[=EBc]- [EBc]3 c | B=A- A3 G | Ff- f3 e | z [FBd]- [FBd]4- | [FBd]6 | z [A,=DFA]- [A,DFA]3 z | %18
 z [A_c]- [Ac]3 B | A[Ac]- [Ac]3 _c | c[F=Acf]- [FAcf]3 c | _c[=DFAB]- [DFAB]3 F | AG- G3 A | %23
 z A- A4- | A6 |] %25
V:2
 z3 z2 E/E/ | z z/ E/E z z/[K:treble] F/G | C,6 | [=E,A,_C=E]6 | [E,A,]6 | %5
 A,->[B,,A,-][A,,A,] [E,G,DE]3 | [=E,G,D]3 [F,A,C]3 | z z/[K:treble] F/F[K:bass] z z/ G,/F, | %8
[M:5/8] [G,E]3[K:treble] [B,DEG]2 |[M:3/4] E<.E[K:bass] z .E,3 | .E2 z2 z [A,F]- | %11
 [A,F] z z E,2 A,- | A, z z C,2 G,- | G, z z C,2 F,- | F, z z .E,3 | .c2 z F,2 D, | %16
 F,B,- B,3[K:treble] F | G[K:bass]_C,- C,3[K:treble] G | A[K:bass][=E,A,=D]- [E,A,D]3 z | %19
 z [E,A,E]- [E,A,E]3 z | z [F,,F,]- [F,,F,]3 z | z [B,,F,]- [B,,F,]3 z | z [E,B,DE]- [E,B,DE]3 z | %23
 z E,- E,3 F,- | F,E,- E,3 z |] %25
V:3
 x6 | A,,3 B,,3[K:treble] | x6 | x6 | x6 | .C,3 z3 | x6 | B,,3[K:treble][K:bass] B,,3 | %8
[M:5/8] E,-E,- E,3[K:treble] |[M:3/4] z2[K:bass] z2 z A,- | A, z z2 z2 | x6 | x6 | x6 | %14
 z2 z2 z F,- | F, z z2 z2 | x5[K:treble] x | x[K:bass] x4[K:treble] x | x[K:bass] x5 | x6 | x6 | %21
 x6 | x6 | z A,,- A,,4- | A,,6 |] %25
V:4
 x6 | x6 | [A,E]3- [A,E]2- [A,EA] | x6 | x6 | [EA]3 z3 | x6 | z3 =D3 |[M:5/8] B-B- B3 | %9
[M:3/4] dE- E3 E | z2 z F,2 A | z [EA]- [EA]4- | [EA] z z2 z2 | z F- F4 | z [Fc]- [F-c]4 | %15
 F z z2 z2 | x6 | x6 | x6 | x6 | x6 | x6 | x6 | BC- C3 D- | DC- C3 z |] %25
V:5
 x6 | x9/2[K:treble] x3/2 | x6 | x6 | x6 | x6 | x6 | x3/2[K:treble] x3/2[K:bass] x3 | %8
[M:5/8] x3[K:treble] x2 |[M:3/4] z[K:bass] A,,- A,,4- | A,,A,,- A,,4- | A,,A,,- A,,4- | %12
 A,,G,,- G,,4- | G,,F,,- F,,4- | F,,=A,,- A,,4- | A,,B,,- B,,4- | B,,6[K:treble] | %17
 x[K:bass] x4[K:treble] x | x[K:bass] x5 | x6 | x6 | x6 | x6 | x6 | x6 |] %25

